!!!!SEGMENT: pl-kk--kk-i-636--001-004_anonim--in-corona-domini-responsorium-2dum.krn
!!!cenid: 18xx:4526
!!!COM: Anonim
!!!COM-rismID: pe30004985
!!!CDT:
!!!CNT:
!!!OPR: In Corona Domini
!!!OTL: Responsorium 2dum
!!!OMV: 004
!!!PDT:
!!!AGN: Sacred
!!!YEC: Copyright 2022 Narodowy Instytut Fryderyka Chopina (https://polishscores.org)
!!!YEM: License CC-BY-4.0 (https://creativecommons.org/licenses/by/4.0)
!!!SMS-siglum: PL-Kk
!!!SMS-shelfmark: Kk.I.636
!!!SMS-variant:
!!!SMS-altvar:
!!!SMS-shelfwork: 001-004 M
!!!NIFC-rismSourceID: 1001216440
!!!NIFC-rismChildID: 1001216904
!!!NIFC-islandoraID: pl-kk:40786
!!!URL-pdf-islandora: https://repozytorium.nifc.pl/islandora/object/pl-kk%3A40786/datastream/PDF/view
!!!URL-scan: https://polish.musicsources.pl/pl/lokalizacje/galeria/rekopisy/7271/1 @EN{Scan on Polish Music Sources Website} @PL{Skany w portalu Dziedzictwo Muzyki Polskiej w otwartym dostępie}
!!!IIIF:
!!!ONB-nifc: UWAGA: Lamentacje i Responsoria In Corona Domini na skanach: S – 1-7, A – 24-30, T – 45-52, B – 70-78. Każda Lamentacja i Responsorium to oddzielne pliki.
!!!OMD: Largo.
!!!AIN: 1 alto 1 bass 1 soprn 1 tenor
!!!key: c
**kern	**text	**kern	**text	**kern	**text	**kern	**text
*part4	*part4	*part3	*part3	*part2	*part2	*part1	*part1
*staff4	*staff4	*staff3	*staff3	*staff2	*staff2	*staff1	*staff1
*I"Basso.	*	*I"Tenore.	*	*I"Alto.	*	*I"Soprano.	*
*I'B	*	*I'T	*	*I'A	*	*I'S	*
*Ibass	*	*Itenor	*	*Ialto	*	*Isoprn	*
*ICvox	*	*ICvox	*	*ICvox	*	*ICvox	*
*clefF4	*	*clefC4	*	*clefC3	*	*clefC1	*
*k[b-e-a-]	*	*k[b-e-a-]	*	*k[b-e-a-]	*	*k[b-e-a-]	*
*c:	*	*c:	*	*c:	*	*c:	*
*M4/4	*	*M4/4	*	*M4/4	*	*M4/4	*
*met(c)	*	*met(c)	*	*met(c)	*	*met(c)	*
=1	=1	=1	=1	=1	=1	=1	=1
*2\right	*	*2\right	*	*2\right	*	*2\right	*
!!LO:TX:t=P:problem=all\right:global
!	!	!	!	!	!	!LO:TX:a:t=Largo.	!
2E-\	Tri-	2B-\	Tri-	2g\	Tri-	2b-\	Tri-
4E-\	-stis	4e-\	-stis	4g\	-stis	4b-\	-stis
4E-\	est	4e-\	est	4g\	est	4b-\	est
=2	=2	=2	=2	=2	=2	=2	=2
4.B-\	a-	4.d\	a-	4.f\	a-	4.b-\	a-
8B-\	-ni-	8d\	-ni-	8f\	-ni-	8b-\	-ni-
2G\	-ma	2e-\	-ma	4g\	-ma	2b-\	-ma
.	.	.	.	[4g\	me-	.	.
!LO:LB:g=original	!	!LO:LB:g=original	!	!LO:LB:g=original	!	!LO:LB:g=original	!
=3	=3	=3	=3	=3	=3	=3	=3
2D\	me-	2f\	me-	8g\L]	.	4.a-\	me-
.	.	.	.	16f\L	.	.	.
.	.	.	.	16e-\JJ	.	.	.
.	.	.	.	4.f\	.	.	.
.	.	.	.	.	.	16g/LL	.
.	.	.	.	.	.	16f/JJ	.
2E-\	.	4.B-\	.	.	.	2g\	.
.	.	.	.	8B-/	.	.	.
.	.	.	.	4e-\	.	.	.
.	.	8c\	.	.	.	.	.
=4	=4	=4	=4	=4	=4	=4	=4
4BB-/	-a	4d\	-a	4d\	-a,	4f/	-a
4B-\	us-	4d\	us-	4f\	us-	4b-\	us-
4B-\	-que	4d\	-que	4f\	-que	4b-\	-que
4B-\	ad	4d\	ad	4f\	ad	4b-\	ad
=5	=5	=5	=5	=5	=5	=5	=5
1A-	mor-	1d	mor-	[1f	mor-	1b-	mor-
=6	=6	=6	=6	=6	=6	=6	=6
4G\	-tem,	4d\	-tem,	4f\]	.	4bn\	-tem,
2G\	sus-	2d\	sus-	4d\	-tem,	2b\	sus-
.	.	.	.	4.d\	sus-	.	.
4F\	-ti-	4Bn\	-ti-	.	.	4dd\	-ti-
.	.	.	.	8d\	-ti-	.	.
=7	=7	=7	=7	=7	=7	=7	=7
2E-\	-ne-	2c\	-ne-	2g\	-ne-	4dd\	-ne-
.	.	.	.	.	.	2cc\	.
2D\	-te	4A-/	.	2f\	-te	.	.
.	.	8G/L	-te	.	.	4bn\	-te
.	.	8F/J	.	.	.	.	.
!LO:LB:g=original	!	!LO:LB:g=original	!	!LO:LB:g=original	!	!LO:LB:g=original	!
=8	=8	=8	=8	=8	=8	=8	=8
2C/	hic,	2G/	hic	4e-\	hic,	4cc\	hic
.	.	.	.	4g\	et	2ee-\	et
2r	.	4r	.	2f\	vi-	.	.
.	.	4Bn\	et	.	.	[4dd\	vi-
=9	=9	=9	=9	=9	=9	=9	=9
!LO:TX:a:t=1	!	!	!	!	!	!	!
1r	.	4c\	vi-	2e-\	-gi-	4dd\]	.
.	.	4C/	-gi-	.	.	4cc\	-gi-
.	.	2G/	-la-	4e-\	-la-	4cc\	-la-
.	.	.	.	8d\L	.	8bn\L	.
.	.	.	.	8c\J	.	8an\J	.
=10	=10	=10	=10	=10	=10	=10	=10
4r	.	4G/	-te	4d\	-te	4bn\	-te,
4G\	et	4d\	et	4d\	et	4b\	et
[2En\	vi-	[2c\	vi-	[2g\	vi-	[2b-X\	vi-
=11	=11	=11	=11	=11	=11	=11	=11
4E\]	.	4c\]	.	4g\]	.	4b-\]	.
4En\	-gi-	4c\	-gi-	4g\	-gi-	4b-\	-gi-
2F\	-la-	4c\	-la-	2a-\	-la-	4a-X\	-la-
.	.	[4f\	.	.	.	4f\	-te
!	!	!	!	!	!	!LO:LB:g=original	!
=12	=12	=12	=12	=12	=12	=12	=12
2BBn/	-te	4f\]	.	2g\	-te	2.dd\	me-
.	.	8e-\L	-te	.	.	.	.
.	.	8d\J	.	.	.	.	.
[2C/	me-	[2e-\	me-	[2g\	me-	.	.
.	.	.	.	.	.	8cc\L	.
.	.	.	.	.	.	8bn\J	.
!LO:LB:g=original	!	!LO:LB:g=original	!	!LO:LB:g=original	!	!	!
=13	=13	=13	=13	=13	=13	=13	=13
2C/]	.	4e-\]	.	2g\]	.	2cc\	.
.	.	8d\L	.	.	.	.	.
.	.	8c\J	.	.	.	.	.
4GG/	-cum,	4d\	-cum,	4g\	-cum,	4bn\	-cum,
[4G\	nunc	[4d\	nunc	[4g\	nunc	[4b\	nunc
=14	=14	=14	=14	=14	=14	=14	=14
4G\]	.	4d\]	.	4g\]	.	4b\]	.
4G\	vi-	4d\	vi-	4g\	vi-	4bn\	vi-
4.B-\	-de-	4.c\	-de-	4.en\	-de-	4.g\	-de-
8B-\	-bi-	8c\	-bi-	8e\	-bi-	8g\	-bi-
=15	=15	=15	=15	=15	=15	=15	=15
2A-\	-tis	2c\	-tis	2f\	-tis	2a-X\	-tis
2c\	tur-	2d\	tur-	2f#X\	tur-	2an\	tur-
!	!	!	!	!	!	!LO:LB:g=original	!
=16	=16	=16	=16	=16	=16	=16	=16
4B-\	-bam,	4d\	-bam,	4g\	-bam,	4b-X\	-bam,
2B-\	quae	2d\	quae	2g\	quae	2b-\	quae
4G\	cir-	4e-\	cir-	4g\	cir-	4b-\	cir-
!LO:LB:g=original	!	!	!	!LO:LB:g=original	!	!	!
=17	=17	=17	=17	=17	=17	=17	=17
4.A-\	-cum-	4.c\	-cum-	4.e-\	-cum-	4.cc\	-cum-
8G\	-da-	8c\	-da-	8e-\	-da-	8b-\	-da-
4F\	-bit	4d\	-bit,	4f\	-bit,	4a-X\	-bit
4E-\	cir-	4e-\	cir-	4g\	cir-	4g\	cir-
!	!	!LO:LB:g=original	!	!	!	!	!
=18	=18	=18	=18	=18	=18	=18	=18
4D\	-cum-	8f\L	-cum-	4f\	-cum-	4.b-\	-cum-
.	.	8B-\J	.	.	.	.	.
4E-\	-da-	2e-\	-da-	4g\	-da-	.	.
.	.	.	.	.	.	8b-\	-da-
2BB-/	-bit	.	.	2f\	-bit	2b-\	-bit
.	.	4d\	-bit	.	.	.	.
=19	=19	=19	=19	=19	=19	=19	=19
4E-\	me,	2e-\	me,	2g\	me,	2.b-\	me,
4E-\	vos	.	.	.	.	.	.
8BB-/L	fu-	2r	.	2r	.	.	.
8C/	.	.	.	.	.	.	.
8D/	.	.	.	.	.	4b-\	vos
8E-/J	.	.	.	.	.	.	.
!LO:LB:g=original	!	!	!	!	!	!LO:LB:g=original	!
=20	=20	=20	=20	=20	=20	=20	=20
4F\	-gam,	2r	.	4r	.	8f\L	fu-
.	.	.	.	.	.	8g\	.
4F\	vos	.	.	4a-\	vos	8a-\	.
.	.	.	.	.	.	8b-\J	.
8C\L	fu-	4r	.	8e-\L	fu-	4cc\	.
8D\	.	.	.	8f\	.	.	.
8E-\	.	4e-\	vos	8g\	.	8cc\	-gam,
8F\J	.	.	.	(8a-\J	.	8cc\	vos
!	!	!	!	!LO:LB:g=original	!	!	!
=21	=21	=21	=21	=21	=21	=21	=21
4G\	-gam	8B-\L	fu-	8b-\)	.	8g\L	fu-
.	.	8c\	.	8b-\	-gam	8a-\	.
8G\	ca-	8d\	.	8b-\	ca-	8b-\	.
8G\	-pi-	8e-\J	.	8b-\	-pi-	(8cc\J	.
2A-\	-e-	8f\	.	[2b-\	-e-	8dd\)	.
.	.	8f\	-gam	.	.	8dd\	-gam
.	.	8f\	ca-	.	.	8dd\	ca-
.	.	8f\	-pi-	.	.	8dd\	-pi-
!	!	!LO:LB:g=original	!	!	!	!LO:LB:g=original	!
=22	=22	=22	=22	=22	=22	=22	=22
2G\	.	4e-\	-e-	4b-\]	.	8ee-\L	-e-
.	.	.	.	.	.	8b-\J	.
.	.	4B-\	.	8a-\L	.	2ee-\	.
.	.	.	.	8g\J	.	.	.
2F\	.	4c\	.	2a-\	.	.	.
.	.	8B-\L	.	.	.	4dd\	.
.	.	8A-\J	.	.	.	.	.
=23	=23	=23	=23	=23	=23	=23	=23
4E-\	-tis,	4B-\	-tis	4g\	-tis	4ee-\	-tis,
4E-\	et	4B-\	et	4g\	et	4ee-\	et
4A-\	e-	4c\	e-	4e-\	e-	4cc\	e-
4A-\	-go	[4e-\	-go	4e-\	-go	4cc\	-go
!LO:LB:g=original	!	!	!	!	!	!	!
=24	=24	=24	=24	=24	=24	=24	=24
2An\	va-	4e-\]	.	2f\	va-	2cc\	va-
.	.	8d\L	.	.	.	.	.
.	.	8c\J	.	.	.	.	.
4B-\	-dam	4d\	va-	4f\	-dam	4b-\	-dam
[4B-\	im-	4d\	-dam	4f\	im-	[4b-\	im-
!	!	!	!	!LO:LB:g=original	!	!	!
=25	=25	=25	=25	=25	=25	=25	=25
4B-\]	.	4d\	im-	4g\	-mo-	4b-\]	.
4G\	-mo-	4e-\	-mo-	4.g\	-la-	4b-\	-mo-
2D\	-la-	4f\	-la-	.	.	2a-\	-la-
.	.	.	.	8f\	.	.	.
.	.	[4B-\	-ri	[4f\	.	.	.
!	!	!LO:LB:g=original	!	!	!	!LO:LB:g=original	!
=26	=26	=26	=26	=26	=26	=26	=26
2E-\	-ri	4B-\]	.	4f\]	.	2.g\	-ri
.	.	4B-\	pro	2e-\	ri	.	.
2AAn/	pro	2c\	vo-	.	.	.	.
.	.	.	.	4e-\	pro	4g\	pro
=27	=27	=27	=27	=27	=27	=27	=27
1BB-	vo-	8c\L	.	4d\	vo-	4f\	vo-
.	.	8B-\	.	.	.	.	.
.	.	8G\	.	4.e-\	.	4g\	.
.	.	8A-\J	.	.	.	.	.
.	.	2B-\	.	.	.	2f\	.
.	.	.	.	16d\LL	.	.	.
.	.	.	.	16c\JJ	.	.	.
.	.	.	.	4d\	.	.	.
=28	=28	=28	=28	=28	=28	=28	=28
2E-\	-bis.	2B-\	-bis.	2e-\	-bis.	2g\	-bis.
2r	.	2r	.	2r	.	2r	.
!LO:LB:g=original	!	!	!	!LO:LB:g=original	!	!	!
=29||	=29||	=29||	=29||	=29||	=29||	=29||	=29||
!LO:TX:b:t=19.	!	!LO:TX:a:t=19.	!	!LO:TX:a:t=Solo.	!	!	!
00r	.	00r	.	2e-\	Ec-	2g\	Ec-
.	.	.	.	2e-\	-ce	2g\	-ce
=30	=30	=30	=30	=30	=30	=30	=30
.	.	.	.	4f\	ap-	4a-\	ap-
.	.	.	.	8.e-\L	-pro-	4g\	-pro-
.	.	.	.	16d\Jk	.	.	.
.	.	.	.	4e-\	-pin-	4cc\	-pin-
.	.	.	.	4e-\	-quat	4g\	-quat
!	!	!	!	!	!	!LO:LB:g=original	!
=31	=31	=31	=31	=31	=31	=31	=31
.	.	.	.	4f\	ho-	4a-\	ho-
.	.	.	.	4e-\	-ra,	4g\	-ra,
.	.	.	.	4r	.	[2cc\	et
.	.	.	.	4g\	et	.	.
=32	=32	=32	=32	=32	=32	=32	=32
.	.	.	.	4f#X\	fi-	4cc\]	.
.	.	.	.	8g\	-li-	8b-\L	.
.	.	.	.	8f#\	-us	8an\J	.
.	.	.	.	[2g\	ho-	[2b-\	fi-
!	!	!	!	!LO:LB:g=original	!	!	!
=33	=33	=33	=33	=33	=33	=33	=33
00r	.	00r	.	4g\]	.	4b-\]	.
.	.	.	.	8fn\L	.	8a-\	-li-
.	.	.	.	8en\J	.	8g\	-us
.	.	.	.	[2f\	.	[2a-\	ho-
=34	=34	=34	=34	=34	=34	=34	=34
.	.	.	.	4f\]	.	4a-\]	.
.	.	.	.	8e-X\L	mi-	8g\L	-mi-
.	.	.	.	8d\J	.	8f\J	.
.	.	.	.	4e-\	-nis	4g\	-nis
.	.	.	.	4e-\	tra-	4g\	tra-
!	!	!	!	!	!	!LO:LB:g=original	!
=35	=35	=35	=35	=35	=35	=35	=35
.	.	.	.	4e-\	-de-	4g/	-de-
.	.	.	.	8.d\L	.	8.f/L	.
.	.	.	.	16c\Jk	.	16e-/Jk	.
.	.	.	.	4d\	-tur	4f/	-tur
.	.	.	.	4f\	in	4r	.
=36	=36	=36	=36	=36	=36	=36	=36
!	!	!	!	!	!	!LO:TX:a:t=1	!
.	.	.	.	4a-\	ma-	1r	.
.	.	.	.	4a-\	-nus	.	.
.	.	.	.	4a-\	pec-	.	.
.	.	.	.	8g\	.	.	.
.	.	.	.	8f\	-ca-	.	.
!	!	!	!	!LO:PB:g=original	!	!	!
=37	=37	=37	=37	=37	=37	=37	=37
.	.	.	.	8qf/	.	.	.
00r	.	00r	.	4.e-\	-to-	2r	.
.	.	.	.	8d\	.	.	.
.	.	.	.	4c\	rum,	4r	.
.	.	.	.	4r	.	4cc\	in
=38	=38	=38	=38	=38	=38	=38	=38
!	!	!	!	!LO:TX:a:t=1	!	!	!
.	.	.	.	1r	.	4ee-\	ma-
.	.	.	.	.	.	4ee-\	-nus
.	.	.	.	.	.	(4ee-\	pec-
.	.	.	.	.	.	8dd\)	.
.	.	.	.	.	.	8cc\	-ca-
!	!	!	!	!	!	!LO:LB:g=original	!
=39	=39	=39	=39	=39	=39	=39	=39
.	.	.	.	.	.	8qqcc/	.
.	.	.	.	2r	.	4.b-\	-to-
!	!	!	!	!	!	!LO:N:vis=4	!
.	.	.	.	.	.	8an\	.
.	.	.	.	[2b-\	et	4g\	-rum,
.	.	.	.	.	.	4r	.
=40	=40	=40	=40	=40	=40	=40	=40
.	.	.	.	4b-\]	.	2.ee-\	et
.	.	.	.	8a-\L	.	.	.
.	.	.	.	8g\J	.	.	.
.	.	.	.	[2a-\	fi-	.	.
.	.	.	.	.	.	8dd\L	.
.	.	.	.	.	.	8cc\J	.
=41	=41	=41	=41	=41	=41	=41	=41
00r	.	00r	.	4a-\]	.	2.dd\	fi-
.	.	.	.	8g\	-li-	.	.
.	.	.	.	8f\	-us	.	.
.	.	.	.	[2g\	ho-	.	.
.	.	.	.	.	.	8cc\	-li-
.	.	.	.	.	.	8bn\	-us
!	!	!	!	!LO:LB:g=original	!	!	!
=42	=42	=42	=42	=42	=42	=42	=42
.	.	.	.	4g\]	.	4cc\	ho-
.	.	.	.	8f\L	-mi-	8dd\L	-mi-
.	.	.	.	8e-\J	.	8ee-\J	.
.	.	.	.	4f\	-nis	4dd\	-nis
.	.	.	.	4e-\	tra-	4cc\	tra-
!	!	!	!	!	!	!LO:LB:g=original	!
=43	=43	=43	=43	=43	=43	=43	=43
.	.	.	.	4e-\	-de-	4cc\	-de-
.	.	.	.	8d\	-tur	4bn\	-tur
.	.	.	.	8d\	in	.	.
.	.	.	.	[2g\	ma-	4r	.
.	.	.	.	.	.	4b\	in
=44	=44	=44	=44	=44	=44	=44	=44
.	.	.	.	8g\L]	.	2.cc\	ma-
.	.	.	.	8e-\J	.	.	.
.	.	.	.	8d\L	-nus	.	.
.	.	.	.	8c\J	.	.	.
.	.	.	.	[2f\	pec-	.	.
.	.	.	.	.	.	4dd\	-nus
=45	=45	=45	=45	=45	=45	=45	=45
0r	.	0r	.	4f\]	.	4bn\	pec-
.	.	.	.	8.e-\L	.	4g\	-ca-
.	.	.	.	16d\Jk	.	.	.
.	.	.	.	4e-\	.	[2cc\	-to-
.	.	.	.	4c\	-ca-	.	.
!	!	!	!	!LO:LB:g=original	!	!	!
=46	=46	=46	=46	=46	=46	=46	=46
.	.	.	.	1d	-to-	4cc\]	.
.	.	.	.	.	.	8.bn\L	.
.	.	.	.	.	.	16an\Jk	.
.	.	.	.	.	.	2b\	.
=47	=47	=47	=47	=47	=47	=47	=47
1r	.	1r	.	1c	-rum.	1cc	-rum.
!	!	!	!	!	!	!LO:PB:g=original	!
=48||	=48||	=48||	=48||	=48||	=48||	=48||	=48||
!	!	!LO:TX:a:t=1	!	!LO:TX:a:t=1	!	!	!
4r	.	1r	.	1r	.	2r	.
4E-\	vos	.	.	.	.	.	.
8BB-/L	fu-	.	.	.	.	4r	.
8C/	.	.	.	.	.	.	.
8D/	.	.	.	.	.	4b-\	Vos
8E-/J	.	.	.	.	.	.	.
!	!	!LO:LB:g=original	!	!	!	!	!
=49	=49	=49	=49	=49	=49	=49	=49
!	!	!	!	!LO:TX:a:t=tutti.	!	!	!
4F\	-gam,	2r	.	4r	.	8f\L	fu-
.	.	.	.	.	.	8g\	.
4F\	vos	.	.	4a-\	vos	8a-\	.
.	.	.	.	.	.	8b-\J	.
8C\L	fu-	4r	.	8e-\L	fu-	4cc\	-gam,
8D\	.	.	.	8f\	.	.	.
8E-\	.	4e-\	vos	8g\	.	4cc\	vos
8F\J	.	.	.	8a-\J	.	.	.
!LO:LB:g=original	!	!	!	!	!	!	!
=50	=50	=50	=50	=50	=50	=50	=50
4G\	-gam,	8B-\L	fu-	8b-\	.	8g\L	fu-
.	.	8c\	.	8b-\	-gam	8a-\	.
8G\	ca-	8d\	.	8b-\	ca-	8b-\	.
8G\	-pi-	8e-\J	.	8b-\	-pi-	8cc\J	.
2A-\	-e-	8f\	.	[2b-\	-e-	8dd\	.
.	.	8f\	-gam	.	.	8dd\	-gam
.	.	8f\	ca-	.	.	8dd\	ca-
.	.	8f\	-pi-	.	.	8dd\	-pi-
!	!	!	!	!LO:LB:g=original	!	!LO:LB:g=original	!
=51	=51	=51	=51	=51	=51	=51	=51
2G\	.	4e-\	-e-	4b-\]	.	8ee-\L	-e-
.	.	.	.	.	.	8b-\J	.
.	.	4B-\	.	8a-\L	.	2ee-\	.
.	.	.	.	8g\J	.	.	.
2F\	.	4c\	.	2a-\	.	.	.
.	.	8B-\L	.	.	.	4dd\	.
.	.	8A-\J	.	.	.	.	.
=52	=52	=52	=52	=52	=52	=52	=52
4E-\	-tis	4B-\	-tis	4g\	-tis	4ee-\	-tis
4E-\	et	4B-\	et	4g\	et	4ee-\	et
4A-\	e-	4c\	e-	4e-\	e-	4cc\	e-
4A-\	-go	[4e-\	-go	4e-\	-go-	4cc\	-go
!	!	!LO:LB:g=original	!	!	!	!	!
=53	=53	=53	=53	=53	=53	=53	=53
2An\	va-	4e-\]	.	2f\	va-	2cc\	va-
.	.	8d\L	.	.	.	.	.
.	.	8c\J	.	.	.	.	.
4B-\	-dam	4d\	va-	4f\	-dam	4b-\	-dam
[4B-\	im-	4d\	-dam	4f\	im-	[4b-\	im-
!LO:LB:g=original	!	!	!	!	!	!	!
=54	=54	=54	=54	=54	=54	=54	=54
4B-\]	.	4d\	im-	4g\	-mo-	4b-\]	.
4G\	-mo-	4e-\	-mo-	4.g\	-la-	4b-\	-mo-
2D\	-la-	4f\	-la-	.	.	2a-\	-la-
.	.	.	.	8f\	.	.	.
.	.	[4B-\	-ri	[4f\	.	.	.
!	!	!	!	!LO:LB:g=original	!	!LO:LB:g=original	!
=55	=55	=55	=55	=55	=55	=55	=55
2E-\	-ri	4B-\]	.	4f\]	.	2.g\	-ri
.	.	4B-\	pro	2e-\	-ri	.	.
2AAn/	pro	2c\	vo-	.	.	.	.
.	.	.	.	4e-\	pro	4g\	pro
=56	=56	=56	=56	=56	=56	=56	=56
1BB-	vo-	8c\L	.	4d\	vo-	4f/	vo-
.	.	8B-\	.	.	.	.	.
.	.	8G\	.	4.e-\	.	4g/	.
.	.	8A-\J	.	.	.	.	.
.	.	2B-\	.	.	.	2f/	.
.	.	.	.	16d\LL	.	.	.
.	.	.	.	16c\JJ	.	.	.
.	.	.	.	4d\	.	.	.
=57	=57	=57	=57	=57	=57	=57	=57
2E-\	-bis.	2B-\	-bis.	2e-\	-bis.	2g\	-bis.
!LO:TX:b:i:t= Seq(ue) Lamentatio 3tia.	!	!LO:TX:b:i:t=Seq(eu) Lamentt&colon; 3a	!	!	!	!	!
2r	.	2r	.	2r	.	2r	.
==	==	==	==	==	==	==	==
*-	*-	*-	*-	*-	*-	*-	*-
!!!system-decoration: [(s1,s2,s3,s4)]
!!!ENC: Berenika Jozajtis
!!!END: 2023-11-14
!!!EED: Marta Chmielewska
!!!EEV: 2024-06-03
